X:1
T:Franz Schubert
%%score 1 { ( 2 4 ) | 3 }
L:1/8
Q:1/4=60
M:6/8
K:F
V:1 treble nm="Voice" snm="Vce."
V:2 treble nm="Piano" snm="Pno"
V:4 treble 
V:3 bass 
V:1
"^Mässig geschwind" x6 | x6 | x6 | x6 | x6 | x6 | x6 | x6 |!pp! C3/2 _D/ C C F C | %9
w: ||||||||Mit- ten im Schim- mer der|
 (C/_A/) (A/G/) (G/F/) F2 C | C3/2 _D/ C C G C | (C/B/) (B/_A/) (A/G/) G3 | %12
w: spie- * geln- * den * Wel- len|glei- tet, wie Schwä- ne der|wan- * ken- * de * Kahn|
!mf! (_A/c/) (c/B/) (B/A/) A3/2 _E/ E | (_E/_d/) (d/c/) (c/B/) B2 E | %14
w: ach _ auf _ der _ Freu- de sanft-|schim- * mern- * den _ Wel- len|
 c3/2"^cresc." c/ c c3/2 _A/ F | Gc=E F3 |!p! (_E/c/) (c/B/) (B/_A/) A3/2 E/ E | %17
w: glei- tet die See- le da-|hin wie der Kahn,|ach * auf * der * Freu- de sanft-|
 (_E/_d/) (d/c/) c/B/ B2 E | c3/2"^cresc." c/ c c3/2 _A/ F | G c =E F3 |!p! x6 | %21
w: schim- * mern- * den _ Wel- len|glei- tet die See- le da-|hin wie der Kahn;||
 c3/2 _d/ c ._e3/2 d/ c | c3/2 B/ c _d2 B | B3/2 F/ F _d3/2 c/ B | B3/2 _A/ G F3 | c6- | %26
w: denn von dem Him- mel her-|ab auf die Wel- len|tan- zet das A- bend- rot|rund um den Kahn,|tan-|
 c3- c3/2 B/ =A |!f! =d3/2 c/ B B3/2 A/ G | F2 z z2 z | x6 | x6 | x6 | x6 | x6 | %34
w: \-- * zet das|A- * rot rund um den|Kahn.||||||
!pp! C3/2 _D/ C C F C | (C/_A/) (A/G/) (G/F/) F2 C | C3/2 _D/ C C G C | (C/B/) (B/_A/) (A/G/) G3 | %38
w: ü- ber den Wip- pfeln des|west- * li- * chen * Hai- nes|win- ket uns freund- lich der|röt- * li- * che _ Schein;|
!mf! (_A/c/) (c/B/) (B/A/) A3/2 _E/ E | (_E/_d/) (d/c/) (c/B/) B2 E | %40
w: un- * ter * den * Zwei- gen des|öst- * li- * chen _ Hai- nes|
 c3/2"^cresc." c/ c c3/2 _A/ F | G c =E F3 |!p! (_E/c/) c/B/ (B/_A/) A3/2 E/ E | %43
w: säu- selt der Kal- mus im|röt- li- chen Schein|un- * ter * den * Zwei- gen des|
 ._E/_d/ (d/c/) (c/B/) B2 E | .c3/2"^cresc." c/ c c3/2 _A/ F | G .c =E F3 | z6 | %47
w: öst- * li- * chen _ Hai- nes|säu- selt der Kal- mus im|röt- li- chen Schein||
!p! c3/2 _d/ c ._e3/2 d/ c | c3/2 B/ c _d2 B | B3/2 F/ F _d3/2 c/ B | B3/2 _A/ G F3 | c6- | %52
w: Freu- de des Him- mels und|Ru- he des Hai- nes|at- met die Seel im er-|rö- ten- den Schein,|at-|
 c3- c3/2 B/ =A |!f! =d3/2 c/ B B3/2 A/ G | F2 z z2 z | x6 | x6 | x6 | x6 | x6 | C3/2 _D/ C C F C | %61
w: \-- * met die|Seel lm er- rö- ten- den|Schein.||||||Ach, es ent- schwin- det mit|
 (C/_A/) (A/G/) (G/F/) F2 C | C3/2 _D/ C C G C | (C/B/) (B/_A/) (A/G/) G3 | %64
w: tau- * i- * gem _ Flü- gel|mir auf den wie- gen- den|Wel- * len * die * Zeit.|
 (_A/c/) (c/B/) (B/A/) A3/2 _E/ E | (_E/_d/) (d/c/) (c/B/) B2 E | c3/2 c/ c c3/2 _A/ F | %67
w: Mor- * gen _ ent- * schwin- de mit|schim- * mern- * dem * FIü- gel|wie- der wie ge- stern und|
 G c =E F3 | (_E/c/) (c/B/) (B/_A/) A3/2 E/ E | (_E/_d/) (d/c/) (c/B/) B2 E | %70
w: heu- te- die Zeit,|mor- * gen _ ent- * \-schwin- de mit|schim- * mern- * dem _ Flü- gel|
 c3/2 c/ c c3/2 _A/ F | G c =E F3 | z6 | c3/2 _d/ c _e3/2 d/ c | c3/2 B/ c _d2 B | %75
w: wie- der wie ge- stern und|heu- te- die Zeit,||bis ich auf hö- he- rem|strah- len- den FIü- gel|
 B3/2 F/ F _d3/2 c/ B | B3/2 _A/ G F3 | c6- | c3- c3/2 B/ =A |!f! =d3/2 c/ B B3/2 A/ G | %80
w: sel- ber ent- schwin- de der|wech- seln \-den Zeit|sel-|* * ber ent-|schwin- de der wech- seln- den|
 F2 z z2 z | x6 | x6 | x6 | %84
w: Zeit.||||
[Q:1/4=60] x6[Q:1/4=59][Q:1/4=59][Q:1/4=58][Q:1/4=58][Q:1/4=57][Q:1/4=57][Q:1/4=56][Q:1/4=56][Q:1/4=55][Q:1/4=54][Q:1/4=54] | %85
w: |
[Q:1/4=53] x6[Q:1/4=53][Q:1/4=52][Q:1/4=52][Q:1/4=51][Q:1/4=51][Q:1/4=50][Q:1/4=49][Q:1/4=49][Q:1/4=48][Q:1/4=48][Q:1/4=47] | %86
w: |
[Q:1/4=47] x6 |] %87
w: |
V:2
"^(Orig. As dur)" (C/!<(!c/)(c/B/)"^Auf dem Wasser zu singen"(B/!<)!_A/)!>(! (A/G/)(G/F/)(F/C/)!>)!"^Leopold Graf von Stollberg" | %1
!<(!!<(! (C/c/)(c/B/)(B/_A/)!<)! (A/G/)(G/F/)(F/C/)!<)! | %2
 (C/_d/)(d/c/)(c/B/)!>(! B/A/(A/G/)"^0p.72."(G/C/)!>)! | %3
!<(! (C/_d/)(d/c/)(c/B/)!<)!!>(! (B/_A/)A/G/(G/C/)!>)! | %4
!<(! (C/c/)(c/B/)(B/!<)!_A/)!>(! (A/G/)(G/F/)(F/C/)!>)! | %5
{F} (f/!<(!_e/)(e/_d/)(d/!<)!c/)!>(! (c/=B/)(B/c/)(c/!>)!d/) | %6
 (!>!_d/c/_B/_A/G/F/ !>!c/B/A/G/F/=E/) | G/F/-C/_A,/C/E/ F z z | %8
!pp! (C/c/)(c/B/)(B/_A/) (A/G/)(G/F/)(F/C/) | (C/c/)(c/B/)(B/_A/) (A/G/)(G/F/)(F/C/) | %10
 (C/_d/)(d/c/)(c/B/) (B/_A/)(A/G/)G/C/ | (C/_d/)(d/c/)(c/B/) (B/_A/)(A/G/)G/C/ | %12
!mf!!<(! _E/_e/(e/_d/)(d/c/)!<)!!>(! (c/B/)(B/_A/)(A/!>)!E/) | %13
 (_E/f/)(f/_e/)!<(!(e/_d/)!<)!!>(! (d/c/)(c/B/)(B/!>)!E/) | %14
 _E/_e/"_cresc."(e/c/)(c/_A/) (F/f/)(f/c/)(c/A/) | (G/g/)(g/=e/)(e/c/) (F/f/)(f/c/)(c/_A/) | %16
!p!!<(! (_E/_e/)(e/_d/)(d/c/)!<)!!>(! (c/B/)(B/_A/)(A/!>)!E/) | %17
 (_E/f/)(f/_e/)(e/_d/)!>(! (d/c/)(c/B/)B/E/!>)! | (_E/_e/)(e/"_cresc."c/) (c/ _A/) F/f/f/c/c/A/ | %19
 (G/g/)(g/=e/)(e/c/) (F/f/)(f/c/)(c/_A/) | %20
!p! _G/!<(!_e/(e/_d/)(d/c/)!<)!!>(! (c/=B/)B/c/(c/!>)!G/) | %21
 _G/_e/!<(!(e/_d/)(d/c/)!<)!!>(! (c/=B/)(B/c/)c/G/!>)! | (_G/_e/)(e/_d/)(d/c/) (F/d/)(d/c/)(c/B/) | %23
 (F/_d/)(d/c/)(c/B/) (F/f/)(f/_e/)(e/d/) | C/d/(d/.c/)(c/B/) (C/_A/)(A/G/)(G/F/) | %25
 (C/B/)(B/._A/)(A/G/) (C/A/)(A/G/)(G/F/) | C/B/(.B/=A/)(A/G/) C/A/(A/G/)(G/F/) | %27
 =D/B/(B/A/)A/G/ E/d/(d/c/)(c/B/) | (A/!>(!a/)(a/g/)(g/!>)!f/) (c/f/)(f/e/)(e/d/) | %29
 ([Bc]/[Ed]/)([Ed]/[Bc]/)([Bc]/[Ed]/) ([Ed]/[Bc]/)([Bc]/[Ed]/)([Ed]/[Bc]/) | %30
 (c/a/)(a/a/)(g/f/)!>(! (c/f/)(f/e/)!>)!(e/d/) | %31
 ([Bc]/[Ed]/)([Ed]/[Bc]/)([Bc]/[Ed]/) ([Ed]/!>(![Bc]/)([Bc]/[Ed]/)([Ed]/!>)![Bc]/) | %32
 (F/A/)(A/F/)(F/A/)"^dim." (A/F/)(F/A/)(A/F/) | (F/_A/)(A/F/)(F/A/) (A/F/)(F/A/)(A/F/) | %34
 C/c/(c/B/)(B/_A/) (A/G/)(G/F/)(F/C/) | (C/c/)(c/B/)(B/_A/) (A/ G/)(G/F/)(F/C/) | %36
 (C/_d/)(d/c/)(c/B/) (B/_A/)(A/G/)(G/C/) | (C/_d/)(d/c/)(c/B/) (B/_A/)(A/G/)(G/C/) | %38
!mf! _E/!<(!_e/(e/_d/)(d/!<)!c/) (c/!>(!B/)(B/_A/)A/E/!>)! | %39
 (_E/f/)(f/_e/)(e/!<(!_d/)!<)! (d/!>(!c/)(c/B/)(B/!>)!E/) | %40
 (_E/_e/)"_cresc."(e/c/)(c/_A/) (F/f/)(f/c/)(c/A/) | (G/g/)(g/=e/)(e/c/) (F/f/)(f/c/)(c/_A/) | %42
!p! (_E/!<(!_e/)(e/_d/)(d/!<)!c/) (c/!>(!B/)(.B/._A/)(A/E/)!>)! | %43
 _E/!<(!f/(f/_e/)(e/!<)!_d/)!>(! (d/c/)(c/B/)(B/!>)!E/) | %44
 (_E/_e/)(e/"_cresc."c/)(c/_A/) (F/f/)(f/c/)(c/A/) | (G/g/)g/=e/e/c/ F/f/f/c/c/_A/ | %46
 (_G/_e/)!<(!(e/_d/)(d/c/)!<)! (c/!>(!=B/)(B/c/)(c/G/)!>)! | %47
 (_G/_e/)(e/!<(!_d/)(d/c/)!<)! (c/!>(!=B/)(B/c/)(c/!>)!G/) | %48
 (_G/_e/)(e/_d/)(d/c/) (F/d/)(d/c/)(c/B/) | (F/_d/)(d/c/)(c/B/) (F/f/)(f/_e/)(e/d/) | %50
 (C/_d/)(d/c/)(c/B/) (C/_A/)(A/G/)(G/F/) | (C/B/)(B/_A/)(A/G/) (C/A/)(A/G/)(G/F/) | %52
 (C/B/)(B/=A/)(A/G/) (C/A/)(A/G/)(G/F/) | =D/B/(B/A/)(A/G/) E/d/(d/c/)(c/B/) | %54
 (A/a/)(a/g/)(g/f/) (c/f/)(f/e/)(e/d/) | %55
 ([Bc]/[Ed]/)([Ed]/[Bc]/)([Bc]/[Ed]/) ([Ed]/[Bc]/)([Bc]/[Ed]/)([Ed]/[Bc]/) | %56
 (c/a/)(a/g/)(g/f/) (c/!>(!f/)(f/!>)!e/)(e/d/) | %57
 ([Bc]/!<(![Ed]/)([Ed]/[Bc]/)([Bc]/[Ed]/)!<)! ([Ed]/[Bc]/)([Bc]/[Ed]/)([Ed]/[Bc]/) | %58
 (F/A/)(A/F/)(F/A/)"_dim." (A/F/)(F/A/)(A/F/) | (F/_A/)(A/F/)(F/A/) (A/F/)(F/A/)(A/F/) | %60
 (C/c/)(c/B/)B/_A/ (A/G/)(G/F/)(F/C/) | (C/c/)(c/B/)(B/_A/) (A/G/)(G/F/)(F/C/) | %62
 (C/_d/)(d/c/)(c/B/) (B/_A/)(A/G/)G/C/ | (C/_d/)(d/c/)(c/B/) (B/_A/)(A/G/)(G/C/) | %64
!mf! (_E/!<(!_e/)(e/_d/)(d/c/)!<)!!>(! (c/B/)(B/._A/)(A/E/)!>)! | %65
 (_E/f/)!<(!(f/_e/)(e/_d/)!<)!!>(! (d/c/)(c/B/)(B/E/)!>)! | %66
 (_E/_e/)"_cresc."(e/c/)(c/_A/) (F/f/)(f/c/)(c/A/) | (G/g/)(g/=e/)(e/c/) (F/f/)(f/c/)(c/_A/) | %68
!p! (_E/!<(!_e/)(e/_d/)(d/!<)!c/) (c/!>(!B/)(B/_A/)(A/E/)!>)! | %69
 (_E/f/)(f/_e/)((e/!<(!_d/))!<)! (d/!>(!c/)(c/B/)(B/E/)!>)! | %70
 (_E/_e/)"_cresc."(e/c/)(c/_A/) (F/f/)(f/c/)(c/A/) | (G/g/)(g/=e/)(e/c/) (F/f/)(f/c/)(c/_A/) | %72
 (_G/_e/)((e/!<(!_d/))(d/c/)!<)! (c/!>(!=B/)(B/c/)(c/G/)!>)! | %73
 (_G/_e/)(e/!<(!_d/)(d/c/)!<)! (c/!>(!=B/)(B/c/)(c/G/)!>)! | %74
 (_G/_e/)(e/_d/)(d/c/) (F/d/)(d/c/)(c/B/) | (F/_d/)(d/c/)(c/B/) (F/f/)(f/_e/)(e/d/) | %76
 (C/_d/)(d/c/)(c/B/) C/_A/(A/G/)(G/F/) | (C/B/)(B/_A/)(A/G/) (C/A/)(A/G/)(G/F/) | %78
 (C/B/)(B/=A/)(A/G/) C/A/(A/G/)(G/F/) | (=D/B/)(B/A/)(A/G/) (E/d/)(d/c/)(c/B/) | %80
 (A/a/)(a/g/)(g/f/) (c/f/)(f/e/)(e/d/) | %81
 ([Bc]/[Ed]/)([Ed]/[Bc]/)([Bc]/[Ed]/) ([Ed]/[Bc]/)([Bc]/[Ed]/)([Ed]/[Bc]/) | %82
 (c/a/)(a/g/)(g/f/) (c/f/)(f/e/)(e/d/) | %83
 ([Bc]/[Ed]/)([Ed]/[Bc]/)([Bc]/[Ed]/) ([Ed]/[Bc]/)([Bc]/[Ed]/)([Ed]/[Bc]/) | %84
 (F/A/)(A/F/)(F/A/)"_dim." (A/F/)(F/A/)(A/F/) | (c/f/)(f/c/)(c/f/) (f/c/)(c/f/)(f/c/) | %86
 !fermata![FAf]6 |] %87
V:3
!pp! F,,[C,F,_A,][C,F,A,] [C,F,A,][C,F,A,][C,F,A,] | %1
 F,,[C,F,_A,][C,F,A,]!>(! [C,F,A,][C,F,A,][C,F,A,]!>)! | %2
!<(! C,, [C,E,B,][C,E,B,]!<)! [C,E,B,][C,E,B,][C,E,B,] | %3
 C,, [C,E,B,][C,E,B,] [C,E,B,][C,E,B,][C,E,B,] | F,,[C,F,_A,][C,F,A,] [C,F,A,][C,F,A,][C,F,A,] | %5
 _D,, [_D,F,_A,][D,F,A,] [D,F,A,][D,F,A,][D,F,A,] | C,, [C,F,_A,][C,F,A,] C,, [C,G,B,][C,G,B,] | %7
 F,,[C,F,_A,][C,F,A,] [C,F,A,][C,F,A,][C,F,A,] | F,,[C,F,_A,][C,F,A,] [C,F,A,][C,F,A,][C,F,A,] | %9
 F,,[C,F,_A,][C,F,A,] [C,F,A,][C,F,A,][C,F,A,] | C,, [C,E,B,][C,E,B,] [C,E,B,][C,E,B,][C,E,B,] | %11
 C,, [C,E,B,][C,E,B,] [C,E,B,][C,E,B,][C,E,B,] | _A,,[_E,_A,C][E,A,C] [E,A,C][E,A,C][E,A,C] | %13
 _E,, [_E,G,_D][E,G,D] [E,G,D][E,G,D][E,G,D] | _A,,[_E,_A,C][E,A,C] F,,[F,A,C][F,A,C] | %15
 C,[G,B,C][G,B,C] F,,[F,_A,C][F,A,C] | _A,,[_E,_A,C][E,A,C] [E,A,C][E,A,C][E,A,C] | %17
 _E,, [_E,G,_D]!<(![E,G,D]!<)! [E,G,D][E,G,D][E,G,D] | _A,,[_E,_A,C][E,A,C] F,, [F,A,C][F,A,C] | %19
 C,[G,B,C][G,B,C] F,, [F,_A,C][F,A,C] | =A,,[_G,C_E][G,CE] [G,CE][G,CE][G,CE] | %21
 A,,[_G,C_E][G,CE] [G,CE][G,CE][G,CE] | A,,[_G,C_E][G,CE] B,,[F,B,_D][F,B,D] | %23
 B,,[F,B,_D][F,B,D] B,,[F,B,D][F,B,D] | C,, [C,=E,B,][C,E,B,] F,,[C,F,_A,][C,F,A,] | %25
 C,, [C,E,B,][C,E,B,] F,,[C,F,_A,][C,F,A,] | %26
!<(! C,, [C,E,B,][C,E,B,]!<)!!>(! F,,[C,F,=A,][C,F,A,]!>)! | %27
!f! B,,, [=D,G,B,][D,G,B,] C,, [C,E,B,][C,E,B,] | F,,[C,F,A,][C,F,A,]!p! [C,F,A,][C,F,A,][C,F,A,] | %29
!<(! C,, [C,G,B,][C,G,B,]!<)!!>(! [C,G,B,][C,G,B,][C,G,B,]!>)! | %30
 F,,[C,F,A,][C,F,A,] [C,F,A,][C,F,A,][C,F,A,] | %31
 C,,!<(! [C,G,B,][C,G,B,]!<)! [C,G,B,][C,G,B,][C,G,B,] | F,,[C,F,][C,F,] [C,F,][C,F,][C,F,] | %33
 F,,[C,F,][C,F,] [C,F,][C,F,][C,F,] |!pp! F,,[C,F,_A,][C,F,A,] [C,F,A,][C,F,A,][C,F,A,] | %35
 F,,[C,F,_A,][C,F,A,] [C,F,A,][C,F,A,][C,F,A,] | C,, [C,E,B,][C,E,B,] [C,E,B,][C,E,B,][C,E,B,] | %37
 C,, [C,E,B,][C,E,B,] [C,E,B,][C,E,B,][C,E,B,] | _A,,[_E,_A,C][E,A,C] [E,A,C][E,A,C][E,A,C] | %39
 _E,, [E,G,_D]2 [E,G,D][E,G,D][E,G,D] | _A,,[_E,_A,C].[E,A,C] F,,[F,A,C][F,A,C] | %41
 C,[G,B,C][G,B,C] F,,[F,_A,C][F,A,C] | _A,,[_E,_A,C][E,A,C] [E,A,C][E,A,C][E,A,C] | %43
 _E,, [_E,G,_D][E,G,D] [E,G,D][E,G,D][E,G,D] | _A,,[_E,_A,C][E,A,C] F,, [F,A,C][F,A,C] | %45
 C,[G,B,C][G,B,C] F,, [F,_A,C][F,A,C] |!p! =A,,[_G,C_E][G,CE] [G,CE][G,CE][G,CE] | %47
 A,,[_G,C_E][G,CE] [G,CE][G,CE][G,CE] | A,,[_G,C_E][G,CE] B,,[F,B,_D][F,B,D] | %49
 B,,[F,B,_D][F,B,D] B,,[F,B,D][F,B,D] | C,, [C,=E,B,][C,E,B,] F,,[C,F,_A,][C,F,A,] | %51
 C,, [C,E,B,][C,E,B,] F,,[C,F,_A,][C,F,A,] | %52
 C,,!<(! [C,E,B,][C,E,B,]!<)! F,,!>(![C,F,=A,]!>)![C,F,A,] | %53
!f! B,,, [D,G,B,][D,G,B,] C,, [C,E,B,][C,E,B,] | %54
 F,,!>(![C,F,A,][C,F,A,]!>)!!p! [C,F,A,][C,F,A,][C,F,A,] | %55
 C,,!<(! [C,G,B,][C,G,B,]!<)! [C,G,B,]!>(![C,G,B,][C,G,B,]!>)! | %56
 F,,[C,F,A,][C,F,A,] [C,F,A,][C,F,A,][C,F,A,] | %57
 C,, [C,G,B,][C,G,B,] [C,G,B,]!>(![C,G,B,][C,G,B,]!>)! | F,,[C,F,][C,F,] [C,F,].[C,F,][C,F,] | %59
 F,,[C,F,][C,F,] [C,F,][C,F,][C,F,] |!pp! F,,[C,F,A,][C,F,A,] [C,F,A,][C,F,A,][C,F,A,] | %61
 F,,[C,F,_A,][C,F,A,] [C,F,A,][C,F,A,][C,F,A,] | C,, [C,E,B,][C,E,B,] [C,E,B,][C,E,B,][C,E,B,] | %63
 C,, [C,E,B,][C,E,B,] [C,E,B,][C,E,B,][C,E,B,] | _A,,[_E,_A,C][E,A,C] [E,A,C][E,A,C][E,A,C] | %65
 _E,, [_E,G,_D][E,G,D] [E,G,D][E,G,D][E,G,D] | _A,,[_E,_A,C][E,A,C] F,, [F,A,C][F,A,C] | %67
 C,[G,B,C][G,B,C] F,,[F,_A,C][F,A,C] | _A,,[_E,_A,C][E,A,C] [E,A,C][E,A,C][E,A,C] | %69
 _E,, [_E,G,_D][E,G,D] [E,G,D][E,G,D][E,G,D] | _A,,[_E,_A,C][E,A,C] F,, [F,A,C][F,A,C] | %71
 C,[G,B,C][G,B,C] F,, [F,_A,C][F,A,C] |!p! =A,,[_G,C_E][G,CE] [G,CE][G,CE][G,CE] | %73
 A,,[_G,C_E][G,CE] [G,CE][G,CE][G,CE] | A,,[_G,C_E][G,CE] B,,[F,B,_D][F,B,D] | %75
 B,,[F,B,_D][F,B,D] B,,[F,B,D][F,B,D] | C,, [C,=E,B,][C,E,B,] F,,[C,F,_A,][C,F,A,] | %77
 C,, [C,E,B,][C,E,B,] F,,[C,F,_A,][C,F,A,] | %78
 C,,!<(! [C,E,B,][C,E,B,]!<)! F,,!>(![C,F,=A,]!>)![C,F,A,] | %79
!f! B,,, [=D,G,B,][D,G,B,] C,, [C,E,B,][C,E,B,] | %80
 F,,!>(![C,F,A,][C,F,A,]!>)!!p! [C,F,A,][C,F,A,][C,F,A,] | %81
 C,,!<(! [C,G,B,][C,G,B,]!<)! [C,G,B,]!>(![C,G,B,][C,G,B,]!>)! | %82
 F,,[C,F,A,][C,F,A,] [C,F,A,]!>(![C,F,A,][C,F,A,]!>)! | %83
 C,,!<(! [C,G,B,][C,G,B,]!<)! [C,G,B,]!>(![C,G,B,][C,G,B,]!>)! | %84
 F,,[C,F,][C,F,] [C,F,][C,F,][C,F,] | F,,[C,F,A,][C,F,A,] [C,F,A,][C,F,A,][C,F,A,] | %86
 !fermata![F,,C,F,]6 |] %87
V:4
 x6 | x6 | x6 | x6 | x6 | x6 | x6 | x6 | x6 | x6 | x6 | x6 | x6 | x6 | x6 | x6 | x6 | x6 | x6 | %19
 x6 | x6 | x6 | x6 | x6 | x6 | x6 | x6 | x6 | A[Ac][Ac] AAA | x6 | AAA AAA | x6 | %32
 [A,C][A,C][A,C][A,C][A,C][A,C] | [_A,C][A,C][A,C] [A,C][A,C][A,C] | x6 | x6 | x6 | x6 | x6 | x6 | %40
 x6 | x6 | x6 | x6 | x6 | x6 | x6 | x6 | x6 | x6 | x6 | x6 | x6 | x6 | A[Ac][Ac] AAA | x6 | %56
 AAA AAA | x6 | [A,C][A,C][A,C] [A,C][A,C][A,C] | [_A,C][A,C][A,C] [A,C][A,C][A,C] | x6 | x6 | x6 | %63
 x6 | x6 | x6 | x6 | x6 | x6 | x6 | x6 | x6 | x6 | x6 | x6 | x6 | x6 | x6 | x6 | x6 | %80
 A[Ac][Ac] AAA | x6 | AAA AAA | x6 | [A,C][A,C][A,C] [A,C][A,C][A,C] | [FA][FA][FA] [FA][FA][FA] | %86
 x6 |] %87

